!!!COM: Music21
!!!OTL: jig_Coffee-Run
!!!OMV: jig_Coffee-Run
**kern
*clefG2
*k[f#c#g#d#]
*E:
*M6/8
=1
16g#LL
16aJ
8b-XJ
=||
8bL
8ee
8cc#J
8bL
8g#
8eJ
=
8f#L
8e
8d#J
4e
8c#
=
8BL
8e
8g#J
8c#L
8e
8aJ
=
8g#L
8a
8g#J
8f#L
16g#L
16aJ
8b-XJ
=
8bL
8ee
8cc#J
8bL
8g#
8eJ
!!linebreak:original
=
8f#L
8e
8d#J
4e
8c#
=
8BL
8e
8f#J
8g#L
8a
8g#J
=
8f#L
8e
8d#J
8eL
16g#L
16aJ
8b-XJ
=||
8bL
8ee
8cc#J
8bL
8g#
8eJ
=
8f#L
8e
8d#J
4e
8c#
=
8BL
8e
8g#J
8c#L
8e
8aJ
!!linebreak:original
=
8g#L
8a
8g#J
8f#L
16g#L
16aJ
8b-XJ
=
8bL
8ee
8cc#J
8bL
8g#
8eJ
=
8f#L
8e
8d#J
4e
8c#
=
8BL
8e
8f#J
8g#L
8a
8g#J
=
8f#L
8e
8d#J
8eL
16f#L
16eJ
8d#J
=||
8c#L
8e
8eJ
8eL
8f#
8g#J
!!linebreak:original
=
8aL
8b
8cc#J
8bL
8ee
8dd#J
=
8cc#L
8ee
8cc#J
8bL
8g#
8eJ
=
16f#LL
16g#J
8a
8g#J
8f#L
8e
8d#J
=
8c#L
8e
8eJ
8eL
8f#
8g#J
=
8aL
8b
8cc#J
8bL
8ee
8dd#J
=
8cc#L
8ee
8cc#J
8bL
8g#
8eJ
!!linebreak:original
=
8f#L
8B
8d#J
8eL
8d#
8dnJ
=
8c#L
8e
8eJ
8eL
8f#
8g#J
=
8aL
8b
8cc#J
8bL
8ee
8dd#J
=
8cc#L
8ee
8cc#J
8bL
8g#
8eJ
=
8f#L
8a
8g#J
8f#L
16g#L
16aJ
8b-XJ
=
8bL
8ee
8cc#J
8bL
8g#
8eJ
!!linebreak:original
=
8f#L
8e
8d#J
4e
8c#
=
8BL
8e
8f#J
8g#L
8a
8g#J
=
8f#L
8e
8d#J
8eL
16g#L
16aJ
8b-XJ
=||
*-
